svg/system/delete_back_fill.svg

<?xml version="1.0" encoding="UTF-8"?>
<svg width="24px" height="24px" viewBox="0 0 24 24" version="1.1" xmlns="http://www.w3.org/2000/svg" xmlns:xlink="http://www.w3.org/1999/xlink">
    <title>delete_back_fill</title>
    <g id="页面-1" stroke="none" stroke-width="1" fill="none" fill-rule="evenodd">
        <g id="System" transform="translate(-382.000000, -240.000000)">
            <g id="delete_back_fill" transform="translate(382.000000, 240.000000)">
                 <path d="M24,0 L24,24 L0,24 L0,0 L24,0 Z M12.5934901,23.257841 L12.5819402,23.2595131 L12.5108777,23.2950439 L12.4918791,23.2987469 L12.4918791,23.2987469 L12.4767152,23.2950439 L12.4056548,23.2595131 C12.3958229,23.2563662 12.3870493,23.2590235 12.3821421,23.2649074 L12.3780323,23.275831 L12.360941,23.7031097 L12.3658947,23.7234994 L12.3769048,23.7357139 L12.4804777,23.8096931 L12.4953491,23.8136134 L12.4953491,23.8136134 L12.5071152,23.8096931 L12.6106902,23.7357139 L12.6232938,23.7196733 L12.6232938,23.7196733 L12.6266527,23.7031097 L12.609561,23.275831 C12.6075724,23.2657013 12.6010112,23.2592993 12.5934901,23.257841 L12.5934901,23.257841 Z M12.8583906,23.1452862 L12.8445485,23.1473072 L12.6598443,23.2396597 L12.6498822,23.2499052 L12.6498822,23.2499052 L12.6471943,23.2611114 L12.6650943,23.6906389 L12.6699349,23.7034178 L12.6699349,23.7034178 L12.678386,23.7104931 L12.8793402,23.8032389 C12.8914285,23.8068999 12.9022333,23.8029875 12.9078286,23.7952264 L12.9118235,23.7811639 L12.8776777,23.1665331 C12.8752882,23.1545897 12.8674102,23.1470016 12.8583906,23.1452862 L12.8583906,23.1452862 Z M12.1430473,23.1473072 C12.1332178,23.1423925 12.1221763,23.1452606 12.1156365,23.1525954 L12.1099173,23.1665331 L12.0757714,23.7811639 C12.0751323,23.7926639 12.0828099,23.8018602 12.0926481,23.8045676 L12.108256,23.8032389 L12.3092106,23.7104931 L12.3186497,23.7024347 L12.3186497,23.7024347 L12.3225043,23.6906389 L12.340401,23.2611114 L12.337245,23.2485176 L12.337245,23.2485176 L12.3277531,23.2396597 L12.1430473,23.1473072 Z" id="MingCute" fill-rule="nonzero"></path>
                <path d="M8.10845,3 C7.07408,3 6.11267,3.53286 5.56445,4.41 L1.4832,10.94 C1.07787,11.5885 1.07786,12.4115 1.4832,13.06 L5.56445,19.59 C6.11267,20.4671 7.07408,21 8.10845,21 L19,21 C20.6568,21 22,19.6569 22,18 L22,6 C22,4.34315 20.6568,3 19,3 L8.10845,3 Z M16.5355,15.5355 C16.145,15.9261 15.5118,15.9261 15.1213,15.5355 L13,13.4142 L10.8786,15.5355 C10.4881,15.9261 9.85495,15.9261 9.46443,15.5355 C9.0739,15.145 9.0739,14.5118 9.46443,14.1213 L11.5857,12 L9.46443,9.87868 C9.0739,9.48815 9.0739,8.85499 9.46443,8.46447 C9.85495,8.07394 10.4881,8.07394 10.8786,8.46447 L13,10.5858 L15.1213,8.46447 C15.5118,8.07394 16.145,8.07394 16.5355,8.46447 C16.926,8.85499 16.926,9.48815 16.5355,9.87868 L14.4142,12 L16.5355,14.1213 C16.926,14.5118 16.926,15.145 16.5355,15.5355 Z" id="形状" fill="#09244B"></path>
            </g>
        </g>
    </g>
</svg>

<svg xmlns="http://www.w3.org/2000/svg" width="24" height="24"><g fill="none" fill-rule="evenodd"><path d="M24 0v24H0V0h24ZM12.593 23.258l-.011.002-.071.035-.02.004-.014-.004-.071-.035c-.01-.004-.019-.001-.024.005l-.004.01-.017.428.005.02.01.013.104.074.015.004.012-.004.104-.074.012-.016.004-.017-.017-.427c-.002-.01-.009-.017-.017-.018Zm.265-.113-.013.002-.185.093-.01.01-.003.011.018.43.005.012.008.007.201.093c.012.004.023 0 .029-.008l.004-.014-.034-.614c-.003-.012-.01-.02-.02-.022Zm-.715.002a.023.023 0 0 0-.027.006l-.006.014-.034.614c0 .012.007.02.017.024l.015-.002.201-.093.01-.008.004-.011.017-.43-.003-.012-.01-.01-.184-.092Z"/><path fill="#09244B" d="M8.108 3a3 3 0 0 0-2.544 1.41l-4.08 6.53a2 2 0 0 0 0 2.12l4.08 6.53A3 3 0 0 0 8.108 21H19a3 3 0 0 0 3-3V6a3 3 0 0 0-3-3H8.108Zm8.427 12.536a1 1 0 0 1-1.414 0L13 13.414l-2.121 2.122a1 1 0 1 1-1.415-1.415L11.586 12 9.464 9.879a1 1 0 0 1 1.415-1.415L13 10.586l2.121-2.122a1 1 0 1 1 1.414 1.415L14.415 12l2.12 2.121a1 1 0 0 1 0 1.415Z"/></g></svg>
